public/logo/EsLogo.svg

<svg width="135.601" height="69.6" viewBox="0 0 135.601 69.6" xmlns="http://www.w3.org/2000/svg"><g id="svgGroup" stroke-linecap="round" fill-rule="nonzero" font-size="9pt" stroke="#ffffff" stroke-width=".4mm" fill="#000000" style="stroke:#ffffff;stroke-width:.4mm;fill:#000000"><path d="M 7.4 12.4 L 7.3 11.9 Q 7.3 10.702 8.577 9.758 A 6.44 6.44 0 0 1 9.3 9.3 L 21 4.7 Q 21.383 4.509 22.085 4.5 A 5.451 5.451 0 0 1 22.15 4.5 A 1.577 1.577 0 0 1 23.111 4.831 A 2.418 2.418 0 0 1 23.5 5.2 Q 23.939 5.712 24.431 5.85 A 1.365 1.365 0 0 0 24.8 5.9 Q 25.5 5.9 27.75 5.35 Q 30 4.8 33.8 3.95 Q 37.6 3.1 42.3 2.3 A 133.135 133.135 0 0 1 62.977 0.417 A 147.498 147.498 0 0 1 65.2 0.4 Q 79.3 0.4 85.4 2.5 Q 87.8 3.4 89.45 4.95 A 5.236 5.236 0 0 1 90.7 6.692 A 5.01 5.01 0 0 1 91.1 8.7 A 1.312 1.312 0 0 1 90.966 9.314 Q 90.681 9.861 89.792 9.972 A 3.978 3.978 0 0 1 89.3 10 A 502.029 502.029 0 0 0 73.188 10.694 Q 58.835 11.559 48.4 13.2 Q 47.33 13.334 46.975 13.781 A 0.811 0.811 0 0 0 46.8 14.3 A 3.135 3.135 0 0 0 46.816 14.617 A 2.454 2.454 0 0 0 46.85 14.85 A 0.161 0.161 0 0 1 46.853 14.882 Q 46.853 15.153 46.1 16 L 34.8 28.1 Q 34.167 28.733 34.107 29.08 A 0.408 0.408 0 0 0 34.1 29.15 A 0.726 0.726 0 0 0 34.11 29.273 Q 34.148 29.494 34.34 29.5 A 0.346 0.346 0 0 0 34.35 29.5 Q 34.584 29.5 35.475 29.325 A 39.41 39.41 0 0 0 35.6 29.3 Q 42.1 28.9 47.6 28.9 Q 52.849 28.9 53.817 29.447 A 0.764 0.764 0 0 1 53.9 29.5 A 137.363 137.363 0 0 1 55.422 30.657 Q 58.391 32.949 59.029 33.773 A 2.165 2.165 0 0 1 59.05 33.8 Q 59.637 34.583 59.765 35.12 A 1.215 1.215 0 0 1 59.8 35.4 Q 59.8 36.7 57.6 37 A 4620.639 4620.639 0 0 1 51.49 37.598 Q 30.943 39.594 29.1 39.55 Q 27 39.5 26.4 39.5 A 2.586 2.586 0 0 0 25.253 39.795 Q 24.113 40.359 22.8 42 L 10.6 58.2 A 7.59 7.59 0 0 0 10.405 58.528 Q 10.135 59.014 10.104 59.284 A 0.582 0.582 0 0 0 10.1 59.35 A 0.436 0.436 0 0 0 10.123 59.497 Q 10.192 59.689 10.469 59.699 A 0.861 0.861 0 0 0 10.5 59.7 Q 10.9 59.7 11.7 59.3 A 123.784 123.784 0 0 1 21.88 58.087 A 98.009 98.009 0 0 1 29.25 57.8 A 217.893 217.893 0 0 1 33.066 57.831 Q 37.041 57.901 39.721 58.127 A 42.291 42.291 0 0 1 41.4 58.3 A 9.078 9.078 0 0 1 45.592 59.415 Q 48.593 60.971 51.807 64.697 A 43.305 43.305 0 0 1 53.2 66.4 Q 53.7 67.1 53.7 67.7 A 0.433 0.433 0 0 1 53.462 68.083 Q 53.136 68.279 52.366 68.298 A 6.878 6.878 0 0 1 52.2 68.3 Q 33.136 68.3 21.048 68.886 A 240.375 240.375 0 0 0 14.3 69.3 A 4.332 4.332 0 0 1 13.921 69.357 Q 13.525 69.4 13 69.4 Q 9.106 69.4 7.426 67.76 A 3.961 3.961 0 0 1 7.1 67.4 A 1.119 1.119 0 0 0 6.819 67.034 Q 6.599 66.851 6.284 66.811 A 1.458 1.458 0 0 0 6.1 66.8 Q 5.4 66.8 4.85 67.5 Q 4.382 68.095 4.095 68.184 A 0.322 0.322 0 0 1 4 68.2 A 0.579 0.579 0 0 1 3.833 68.169 Q 3.572 68.088 3.096 67.791 A 11.404 11.404 0 0 1 2.8 67.6 Q 1.909 67.006 0.97 65.58 A 14.097 14.097 0 0 1 0.95 65.55 Q 0 64.1 0 62.45 Q 0 60.8 0.65 59.4 Q 1.232 58.148 2.133 56.255 A 682.985 682.985 0 0 1 2.35 55.8 Q 3.323 53.761 6.529 49.017 A 210.004 210.004 0 0 1 7.05 48.25 A 62.781 62.781 0 0 1 11.237 42.757 A 49.33 49.33 0 0 1 14.7 39.1 A 2.485 2.485 0 0 0 14.942 38.823 Q 15.2 38.473 15.2 38.15 Q 15.2 37.7 14.15 37.7 A 3.184 3.184 0 0 1 12.87 37.421 A 4.52 4.52 0 0 1 12.05 36.95 A 2.385 2.385 0 0 1 11.021 35.218 A 3.173 3.173 0 0 1 11 34.85 A 1.21 1.21 0 0 1 11.391 33.998 Q 12.095 33.276 14.069 32.716 A 18.298 18.298 0 0 1 14.5 32.6 L 19.9 31.2 L 20 31.2 A 2.778 2.778 0 0 0 21.375 30.812 Q 22.245 30.322 23.115 29.211 A 10.678 10.678 0 0 0 23.2 29.1 A 465.17 465.17 0 0 1 27.234 25.214 Q 34.841 17.981 37.147 16.638 A 4.537 4.537 0 0 1 37.4 16.5 Q 38.146 16.003 38.274 15.678 A 0.349 0.349 0 0 0 38.3 15.55 A 0.289 0.289 0 0 0 38.123 15.273 Q 37.974 15.2 37.7 15.2 A 5.962 5.962 0 0 0 37.286 15.213 Q 36.953 15.237 36.7 15.3 A 164.885 164.885 0 0 1 31.259 16.091 Q 26.27 16.725 22.718 16.792 A 43.442 43.442 0 0 1 21.9 16.8 Q 17.754 16.8 15.312 16.516 A 17.723 17.723 0 0 1 13.9 16.3 A 23.32 23.32 0 0 1 12.597 16.003 Q 11.063 15.603 10.2 15.1 A 20.564 20.564 0 0 1 9.21 14.414 Q 7.83 13.391 7.493 12.672 A 1.195 1.195 0 0 1 7.4 12.4 Z" id="0"/><path d="M 96.3 38.6 L 86.1 39 A 213.675 213.675 0 0 1 82.032 38.964 Q 77.01 38.868 74.436 38.513 A 16.719 16.719 0 0 1 73.45 38.35 Q 70.2 37.7 67.65 36.8 A 19.159 19.159 0 0 1 65.885 36.083 Q 65.043 35.687 64.361 35.246 A 9.328 9.328 0 0 1 63.6 34.7 A 9.236 9.236 0 0 1 60.854 31.483 Q 59.96 29.705 59.904 27.496 A 11.715 11.715 0 0 1 59.9 27.2 A 3.493 3.493 0 0 1 60.027 26.33 Q 60.365 25.034 61.6 23 Q 63.136 20.471 66.671 17.085 A 66.989 66.989 0 0 1 67.45 16.35 Q 71.6 12.5 77.35 9.05 Q 81.64 6.476 87.962 4.375 A 93.131 93.131 0 0 1 92.5 3 Q 101.9 0.4 112.9 0 A 35.93 35.93 0 0 1 117.951 0.371 A 43.979 43.979 0 0 1 121.15 0.95 A 50.007 50.007 0 0 1 124.202 1.712 Q 126.569 2.387 128.35 3.2 A 13.807 13.807 0 0 1 132.552 6.204 A 16.582 16.582 0 0 1 133.4 7.15 Q 135.6 9.8 135.6 13.3 A 3.65 3.65 0 0 1 134.998 15.215 Q 134.181 16.543 132.258 17.953 A 25.315 25.315 0 0 1 130.2 19.3 A 23.007 23.007 0 0 1 124.093 21.792 Q 119.814 22.9 114.35 22.9 A 108.424 108.424 0 0 1 111.513 22.866 Q 105.996 22.721 104.819 21.959 A 0.57 0.57 0 0 1 104.5 21.5 A 0.752 0.752 0 0 1 104.806 20.972 Q 105.825 20.054 110.25 18.9 Q 116 17.4 121.8 15.4 A 24.72 24.72 0 0 0 123.771 14.632 Q 127.6 12.931 127.6 10.9 A 0.817 0.817 0 0 0 127.154 10.204 Q 126.419 9.739 124.473 9.632 A 23.294 23.294 0 0 0 123.2 9.6 A 93.74 93.74 0 0 0 97.422 13.007 A 76.628 76.628 0 0 0 73.4 24.6 A 21.771 21.771 0 0 0 71.881 25.83 Q 70.434 27.124 69.866 28.238 A 3.008 3.008 0 0 0 69.5 29.6 A 1.656 1.656 0 0 0 70.605 30.946 Q 74.294 32.9 90.3 32.9 A 53.452 53.452 0 0 1 96.626 33.309 Q 103.102 34.156 106.189 36.744 A 7.649 7.649 0 0 1 109 42.9 A 11.32 11.32 0 0 1 107.05 49.1 Q 104.767 52.644 99.812 55.991 A 43.817 43.817 0 0 1 99.5 56.2 A 69.986 69.986 0 0 1 86.498 62.91 A 89.176 89.176 0 0 1 77.15 66 A 107.276 107.276 0 0 1 63.934 68.759 A 83.725 83.725 0 0 1 53 69.6 A 22.798 22.798 0 0 1 46.892 68.726 A 31.637 31.637 0 0 1 41.8 66.8 A 18.126 18.126 0 0 1 39.359 65.422 Q 35.9 63.062 35.9 60 A 1.142 1.142 0 0 1 36.577 58.927 Q 37.066 58.673 37.909 58.611 A 6.997 6.997 0 0 1 38.1 58.6 A 195.496 195.496 0 0 0 42.856 58.022 Q 49.314 57.149 52.184 56.191 A 10.517 10.517 0 0 0 53.2 55.8 Q 54 55.6 54.5 55.6 Q 54.894 55.6 54.977 55.724 A 0.133 0.133 0 0 1 55 55.8 A 0.467 0.467 0 0 1 54.932 56.019 Q 54.765 56.322 54.188 56.797 A 11.14 11.14 0 0 1 53.8 57.1 A 19.039 19.039 0 0 1 52.193 57.878 A 22.337 22.337 0 0 1 51.4 58.2 A 51.866 51.866 0 0 0 50.744 58.439 Q 48.623 59.229 48.6 59.494 A 0.067 0.067 0 0 0 48.6 59.5 A 0.15 0.15 0 0 0 48.703 59.621 Q 49.053 59.8 50.6 59.8 A 10.557 10.557 0 0 0 51.565 59.744 Q 53.917 59.519 59.684 58.399 A 326.464 326.464 0 0 0 60.7 58.2 Q 68.8 56.6 78.05 54.1 Q 87.3 51.6 94.4 47.9 Q 101.183 44.365 101.486 41.105 A 3.288 3.288 0 0 0 101.5 40.8 Q 101.5 38.654 96.551 38.601 A 23.69 23.69 0 0 0 96.3 38.6 Z" id="1"/></g></svg>

<svg xmlns="http://www.w3.org/2000/svg" width="135.6" height="69.6">
  <g stroke="#fff" stroke-linecap="round" stroke-width=".4mm" font-size="12" style="stroke:#fff;stroke-width:.4mm;fill:#000">
    <path d="m7.4 12.4-.1-.5q0-1.2 1.28-2.14a6.44 6.44 0 0 1 .72-.46L21 4.7q.38-.2 1.09-.2a5.45 5.45 0 0 1 .06 0 1.58 1.58 0 0 1 .96.33 2.42 2.42 0 0 1 .39.37q.44.51.93.65a1.36 1.36 0 0 0 .37.05q.7 0 2.95-.55t6.05-1.4q3.8-.85 8.5-1.65A133.13 133.13 0 0 1 62.98.42 147.5 147.5 0 0 1 65.2.4q14.1 0 20.2 2.1 2.4.9 4.05 2.45a5.24 5.24 0 0 1 1.25 1.74 5.01 5.01 0 0 1 .4 2.01 1.31 1.31 0 0 1-.13.61q-.29.55-1.18.66a3.98 3.98 0 0 1-.49.03 502.03 502.03 0 0 0-16.11.7q-14.35.86-24.79 2.5-1.07.13-1.42.58a.81.81 0 0 0-.18.52 3.13 3.13 0 0 0 .02.32 2.45 2.45 0 0 0 .03.23.16.16 0 0 1 0 .03q0 .27-.75 1.12L34.8 28.1q-.63.63-.7.98a.4.4 0 0 0 0 .07.73.73 0 0 0 .01.12q.04.22.23.23a.35.35 0 0 0 .01 0q.23 0 1.13-.18a39.41 39.41 0 0 0 .12-.02q6.5-.4 12-.4 5.25 0 6.22.55a.76.76 0 0 1 .08.05 137.36 137.36 0 0 1 1.52 1.16q2.97 2.29 3.6 3.11a2.17 2.17 0 0 1 .03.03q.59.78.72 1.32a1.22 1.22 0 0 1 .03.28q0 1.3-2.2 1.6a4620.64 4620.64 0 0 1-6.11.6q-20.55 2-22.39 1.95-2.1-.05-2.7-.05a2.59 2.59 0 0 0-1.15.3q-1.14.56-2.45 2.2L10.6 58.2a7.59 7.59 0 0 0-.2.33q-.27.48-.3.75a.58.58 0 0 0 0 .07.44.44 0 0 0 .02.15q.07.19.35.2a.86.86 0 0 0 .03 0q.4 0 1.2-.4a123.78 123.78 0 0 1 10.18-1.21 98 98 0 0 1 7.37-.29 217.9 217.9 0 0 1 3.82.03q3.97.07 6.65.3a42.3 42.3 0 0 1 1.68.17 9.08 9.08 0 0 1 4.2 1.12q3 1.55 6.2 5.28a43.3 43.3 0 0 1 1.4 1.7q.5.7.5 1.3a.43.43 0 0 1-.24.38q-.32.2-1.1.22a6.88 6.88 0 0 1-.16 0q-19.06 0-31.15.59a240.38 240.38 0 0 0-6.75.41 4.33 4.33 0 0 1-.38.06q-.4.04-.92.04-3.9 0-5.57-1.64a3.96 3.96 0 0 1-.33-.36 1.12 1.12 0 0 0-.28-.37q-.22-.18-.54-.22a1.46 1.46 0 0 0-.18-.01q-.7 0-1.25.7-.47.6-.75.68a.32.32 0 0 1-.1.02.58.58 0 0 1-.17-.03q-.26-.08-.73-.38a11.4 11.4 0 0 1-.3-.19q-.9-.6-1.83-2.02a14.1 14.1 0 0 1-.02-.03Q0 64.1 0 62.45q0-1.65.65-3.05l1.48-3.14a682.99 682.99 0 0 1 .22-.46q.97-2.04 4.18-6.78a210 210 0 0 1 .52-.77 62.78 62.78 0 0 1 4.19-5.5 49.33 49.33 0 0 1 3.46-3.65 2.48 2.48 0 0 0 .24-.28q.26-.35.26-.67 0-.45-1.05-.45a3.18 3.18 0 0 1-1.28-.28 4.52 4.52 0 0 1-.82-.47 2.38 2.38 0 0 1-1.03-1.73 3.17 3.17 0 0 1-.02-.37 1.21 1.21 0 0 1 .4-.85q.7-.72 2.67-1.28a18.3 18.3 0 0 1 .43-.12l5.4-1.4h.1a2.78 2.78 0 0 0 1.38-.39q.87-.49 1.73-1.6a10.68 10.68 0 0 0 .09-.11 465.17 465.17 0 0 1 4.03-3.89q7.61-7.23 9.92-8.57a4.54 4.54 0 0 1 .25-.14q.75-.5.87-.82a.35.35 0 0 0 .03-.13.29.29 0 0 0-.18-.28q-.15-.07-.42-.07a5.96 5.96 0 0 0-.41.01q-.34.03-.59.09a164.88 164.88 0 0 1-5.44.8q-4.99.63-8.54.7a43.44 43.44 0 0 1-.82 0q-4.15 0-6.59-.28a17.72 17.72 0 0 1-1.41-.22 23.32 23.32 0 0 1-1.3-.3q-1.54-.4-2.4-.9a20.56 20.56 0 0 1-.99-.69q-1.38-1.02-1.72-1.74a1.2 1.2 0 0 1-.09-.27Z"/>
    <path d="m96.3 38.6-10.2.4a213.68 213.68 0 0 1-4.07-.04q-5.02-.1-7.6-.45a16.72 16.72 0 0 1-.98-.16q-3.25-.65-5.8-1.55a19.16 19.16 0 0 1-1.77-.72q-.84-.4-1.52-.83a9.33 9.33 0 0 1-.76-.55 9.24 9.24 0 0 1-2.75-3.22q-.89-1.78-.95-3.98a11.71 11.71 0 0 1 0-.3 3.5 3.5 0 0 1 .13-.87q.34-1.3 1.57-3.33 1.54-2.53 5.07-5.91a66.99 66.99 0 0 1 .78-.74q4.15-3.85 9.9-7.3 4.29-2.57 10.61-4.68A93.13 93.13 0 0 1 92.5 3q9.4-2.6 20.4-3a35.93 35.93 0 0 1 5.05.37 43.98 43.98 0 0 1 3.2.58 50 50 0 0 1 3.05.76q2.37.68 4.15 1.49a13.8 13.8 0 0 1 4.2 3 16.58 16.58 0 0 1 .85.95q2.2 2.65 2.2 6.15a3.65 3.65 0 0 1-.6 1.91q-.82 1.33-2.74 2.74a25.32 25.32 0 0 1-2.06 1.35 23 23 0 0 1-6.1 2.5q-4.29 1.1-9.75 1.1a108.42 108.42 0 0 1-2.84-.03q-5.51-.15-6.7-.91a.57.57 0 0 1-.31-.46.75.75 0 0 1 .3-.53q1.03-.92 5.45-2.07 5.75-1.5 11.55-3.5a24.72 24.72 0 0 0 1.97-.77q3.83-1.7 3.83-3.73a.82.82 0 0 0-.45-.7q-.73-.46-2.68-.57a23.3 23.3 0 0 0-1.27-.03A93.74 93.74 0 0 0 97.42 13 76.63 76.63 0 0 0 73.4 24.6a21.77 21.77 0 0 0-1.52 1.23q-1.45 1.3-2.01 2.4a3 3 0 0 0-.37 1.37 1.66 1.66 0 0 0 1.1 1.35q3.7 1.95 19.7 1.95a53.45 53.45 0 0 1 6.33.4q6.47.86 9.56 3.44A7.65 7.65 0 0 1 109 42.9a11.32 11.32 0 0 1-1.95 6.2q-2.28 3.54-7.24 6.9a43.82 43.82 0 0 1-.31.2 69.99 69.99 0 0 1-13 6.71A89.18 89.18 0 0 1 77.15 66a107.28 107.28 0 0 1-13.22 2.76A83.72 83.72 0 0 1 53 69.6a22.8 22.8 0 0 1-6.1-.87 31.64 31.64 0 0 1-5.1-1.93 18.13 18.13 0 0 1-2.44-1.38Q35.9 63.06 35.9 60a1.14 1.14 0 0 1 .68-1.07q.49-.26 1.33-.32a7 7 0 0 1 .19-.01 195.5 195.5 0 0 0 4.76-.58q6.45-.87 9.32-1.83a10.52 10.52 0 0 0 1.02-.39q.8-.2 1.3-.2.4 0 .48.12a.13.13 0 0 1 .02.08.47.47 0 0 1-.07.22q-.16.3-.74.78a11.14 11.14 0 0 1-.39.3 19.04 19.04 0 0 1-1.6.78 22.34 22.34 0 0 1-.8.32 51.87 51.87 0 0 0-.66.24q-2.12.79-2.14 1.05a.07.07 0 0 0 0 .01.15.15 0 0 0 .1.12q.35.18 1.9.18a10.56 10.56 0 0 0 .96-.06q2.36-.22 8.12-1.34a326.46 326.46 0 0 0 1.02-.2q8.1-1.6 17.35-4.1 9.25-2.5 16.35-6.2 6.78-3.53 7.09-6.8a3.29 3.29 0 0 0 .01-.3q0-2.15-4.95-2.2a23.69 23.69 0 0 0-.25 0Z"/>
  </g>
</svg>
